assets/quantconnect/original.svg

<svg viewBox="0 0 24 24" xmlns="http://www.w3.org/2000/svg" fill="#F98309"><path d="m23.0673 16.6635a12.1084 12.1084 0 0 1 -6.404 6.4046 12.0185 12.0185 0 0 1 -4.6631.9319v-2.7975a8.63 8.63 0 0 0 3.5454-.7466 9.4574 9.4574 0 0 0 2.9836-1.9273 11.3659 11.3659 0 0 0 1.9273-2.922 9.1472 9.1472 0 0 0 .7465-3.6064 8.6298 8.6298 0 0 0 -.7465-3.5454 8.9285 8.9285 0 0 0 -4.9109-4.9122 9.5282 9.5282 0 0 0 -7.091 0 9.4798 9.4798 0 0 0 -4.9108 4.9122 9.7584 9.7584 0 0 0 -.7461 3.5452h-2.7974a12.0115 12.0115 0 0 1 .9317-4.6625 12.093 12.093 0 0 1 6.404-6.4047 12.121 12.121 0 0 1 9.326 0 11.5066 11.5066 0 0 1 3.7923 2.609 11.4988 11.4988 0 0 1 2.613 3.7963 12.1232 12.1232 0 0 1 0 9.3254zm-11.0693-6.7767v-2.7976a4.7884 4.7884 0 0 0 -3.4826 1.4296 4.7089 4.7089 0 0 0 -1.4911 3.482 4.609 4.609 0 0 0 1.4911 3.4779c1.8316 1.923 4.8752 1.9972 6.7983.1656a4.7631 4.7631 0 0 0 .1656-.1656 4.34 4.34 0 0 0 1.4296-3.4786h-2.7976a2.0583 2.0583 0 0 1 -.6215 1.4918 2.0189 2.0189 0 0 1 -1.4918.6221c-1.1653-.0051-2.1088-.9485-2.114-2.114a2.0199 2.0199 0 0 1 .6216-1.4917 2.0637 2.0637 0 0 1 1.4924-.6215zm5.972 8.0798a7.0439 7.0439 0 0 0 1.806-2.6759 7.4712 7.4712 0 0 0 .6838-3.2953 7.655 7.655 0 0 0 -.6837-3.2953 8.453 8.453 0 0 0 -4.4767-4.4767 7.4678 7.4678 0 0 0 -3.2953-.6836v2.7976a5.3066 5.3066 0 0 1 3.979 1.6784 5.4031 5.4031 0 0 1 1.6784 3.979c-.0338 3.1246-2.5943 5.6303-5.719 5.5964-3.077-.0333-5.5632-2.5195-5.5965-5.5964h-2.7976a8.4 8.4 0 0 0 .616 3.298 9.2912 9.2912 0 0 0 4.5397 4.5381 9.0414 9.0414 0 0 0 6.59 0 7.9963 7.9963 0 0 0 2.6758-1.8643z"/></svg>

<svg xmlns="http://www.w3.org/2000/svg" fill="#f98309" viewBox="0 0 24 24"><path d="M23.067 16.664a12.1 12.1 0 0 1-6.404 6.404A12 12 0 0 1 12 24v-2.797a8.6 8.6 0 0 0 3.546-.747 9.5 9.5 0 0 0 2.983-1.927 11.4 11.4 0 0 0 1.927-2.922A9.15 9.15 0 0 0 21.204 12a8.6 8.6 0 0 0-.746-3.545 8.93 8.93 0 0 0-4.911-4.912 9.53 9.53 0 0 0-7.091 0 9.48 9.48 0 0 0-4.911 4.912A9.8 9.8 0 0 0 2.798 12H0a12 12 0 0 1 .932-4.663A12.1 12.1 0 0 1 7.336.933a12.12 12.12 0 0 1 9.326 0 11.5 11.5 0 0 1 3.792 2.609 11.5 11.5 0 0 1 2.613 3.796 12.12 12.12 0 0 1 0 9.325M11.998 9.886V7.089a4.79 4.79 0 0 0-3.483 1.43A4.7 4.7 0 0 0 7.025 12a4.6 4.6 0 0 0 1.49 3.478 4.81 4.81 0 0 0 6.799.165 5 5 0 0 0 .165-.165A4.34 4.34 0 0 0 16.91 12H14.11a2.06 2.06 0 0 1-.621 1.492 2.02 2.02 0 0 1-1.492.622A2.123 2.123 0 0 1 9.884 12a2.02 2.02 0 0 1 .622-1.492 2.06 2.06 0 0 1 1.492-.621m5.972 8.08a7.04 7.04 0 0 0 1.806-2.676 7.5 7.5 0 0 0 .684-3.296 7.66 7.66 0 0 0-.684-3.295A8.45 8.45 0 0 0 15.3 4.223a7.5 7.5 0 0 0-3.295-.683v2.797a5.3 5.3 0 0 1 3.98 1.679 5.4 5.4 0 0 1 1.677 3.979 5.658 5.658 0 0 1-11.315 0H3.548a8.4 8.4 0 0 0 .616 3.298 9.3 9.3 0 0 0 4.54 4.538 9.04 9.04 0 0 0 6.59 0 8 8 0 0 0 2.676-1.864z"/></svg>
